!!!!SEGMENT: pl-gd--ee-1638--002-003_marenzio-luca--motettorum-pro-festis-totius-anni-in-festo-s-ioannis-apost-et-evang-iste-est-ioannes.krn
!!!cenid: 15xx:1006
!!!COM: Marenzio, Luca
!!!COM-rismID: pe30003955
!!!CDT: ~1553-1599/08/22
!!!CNT: Italian
!!!GTL: Motettorum pro festis totius anni
!!!OTL: In festo S. Ioannis Apost. et Evang/Iste est Ioannes
!!!OMV: 003
!!!PDT: 1588
!!!AGN:
!!!SMS-siglum: PL-GD
!!!SMS-shelfmark: Ee 1638
!!!SMS-shelfwork: 002-003 G
!!!SMS-variant:
!!!SMS-altvar:
!!!NIFC-rismSourceID: 1001202747
!!!NIFC-rismChildID: 990039238
!!!NIFC-islandoraID: pl-gd:57883
!!!URL-pdf-islandora: https://repozytorium.nifc.pl/islandora/object/pl-gd%3A57883/datastream/PDF/view
!!!URL-scan: https://polish.musicsources.pl/pl/lokalizacje/galeria/klocki-introligatorskie/655 @EN{Scan on Polish Music Sources Website} @PL{Skany w portalu Dziedzictwo Muzyki Polskiej w otwartym dostępie}
!!!ONB-nifc: UWAGA: Cantus: s. 617 (prawa), Altus: s. 465 (prawa), Tenor: s. 313 (prawa), Bassus: s. 161 (prawa)
!!!AIN: 1 alto 1 bass 1 soprn 1 tenor
!!!key: a
**kern	**text	**kern	**text	**kern	**text	**kern	**text
*part4	*part4	*part3	*part3	*part2	*part2	*part1	*part1
*staff4	*staff4	*staff3	*staff3	*staff2	*staff2	*staff1	*staff1
*I"BASSVS	*	*I"TENOR	*	*I"ALTVS	*	*I"CANTVS	*
*I'B	*	*I'T	*	*I'A	*	*I'S	*
*ICvox	*	*ICvox	*	*ICvox	*	*ICvox	*
*Ibass	*	*Itenor	*	*Ialto	*	*Isoprn	*
*clefF3	*	*clefC3	*	*clefC2	*	*clefG2	*
*k[]	*	*k[]	*	*k[]	*	*k[]	*
*a:	*	*a:	*	*a:	*	*a:	*
*M2/1	*	*M2/1	*	*M2/1	*	*M2/1	*
*met(C|)	*	*met(C|)	*	*met(C|)	*	*met(C|)	*
=1-	=1-	=1-	=1-	=1-	=1-	=1-	=1-
*xywh-#161:4559,594,3405,749	*	*	*	*	*	*	*
*	*	*xywh-#313:4539,550,3481,822	*	*	*	*	*
*	*	*	*	*xywh-#465:4509,566,3411,798	*	*	*
*	*	*	*	*	*	*xywh-#617:4606,531,3491,797	*
00r	.	00r	.	1r	.	1.a	I-
.	.	.	.	1.a	I-	.	.
.	.	.	.	.	.	2a/	-Ste
=2-	=2-	=2-	=2-	=2-	=2-	=2-	=2-
.	.	.	.	.	.	1cc	eſt
.	.	.	.	2a\	-Ste	.	.
.	.	.	.	2g\	eſt	1dd	Io-
.	.	.	.	2f\	Ioan-	.	.
=3-	=3-	=3-	=3-	=3-	=3-	=3-	=3-
00r	.	0r	.	4e/	.	0ee	-an-
.	.	.	.	4d/	.	.	.
.	.	.	.	4c/	.	.	.
.	.	.	.	4d/	.	.	.
.	.	.	.	4e/	.	.	.
.	.	.	.	4f\	.	.	.
.	.	.	.	4g\	.	.	.
.	.	.	.	4e/	.	.	.
=4-	=4-	=4-	=4-	=4-	=4-	=4-	=4-
.	.	2r	.	4f\	.	4a/	-nes
.	.	.	.	4g\	.	4b/	.
.	.	2A/	Qui	2.a\	.	4cc\	.
.	.	.	.	.	.	4a/	.
.	.	2d\	ſu-	.	.	1b	.
.	.	.	.	8g\	.	.	.
.	.	.	.	8f#X\	.	.	.
!	!	!	!	!LO:SIC:v:t=custos a	!	!	!
.	.	2e\	-pra	2g#X\	.	.	.
*	*	*	*	*xywh-#465:4516,1280,3326,628	*	*	*
!	!	!	!	!LO:LB:g=original	!	!	!
=5-	=5-	=5-	=5-	=5-	=5-	=5-	=5-
0r	.	2.f\	pec-	0.a	-nes	2r	.
.	.	.	.	.	.	2a/	Qui
.	.	4e\	-tus	.	.	.	.
.	.	2d\	Do-	.	.	2dd\	ſu-
.	.	2c#X/	-mi-	.	.	2ee\	-pra
=6-	=6-	=6-	=6-	=6-	=6-	=6-	=6-
2r	.	1d	-ni	.	.	2.ff\	pec-
2D/	Qui	.	.	.	.	.	.
!	!	!	!	!	!	!LO:SIC:v:t=custos dd	!
.	.	.	.	.	.	4ee\	-tus
*	*	*	*	*	*	*xywh-#617:4585,1231,3449,594	*
!	!	!	!	!	!	!LO:LB:g=original	!
2G\	ſu-	1r	.	1r	.	2dd\	Do-
2A\	-pra	.	.	.	.	2cc#X\	-mi-
=7-	=7-	=7-	=7-	=7-	=7-	=7-	=7-
2.B-X\	pec-	0r	.	2r	.	00dd	-ni
.	.	.	.	2d/	Qui	.	.
4A\	-tus	.	.	.	.	.	.
2G\	Do-	.	.	2gny\	ſu-	.	.
2F#X/	-mi-	.	.	2a\	-pra	.	.
=8-	=8-	=8-	=8-	=8-	=8-	=8-	=8-
1G	-ni	1r	.	2.b-X\	pec-	.	.
.	.	.	.	4a\	-tus	.	.
!LO:SIC:v:t=custos G	!	!	!	!	!	!	!
1r	.	2r	.	2g\	Do-	.	.
!	!	!LO:SIC:v:t=custos e	!	!	!	!	!
.	.	2d\	in	2f#X\	-mi-	.	.
*xywh-#161:4559,1284,3417,602	*	*	*	*	*	*	*
*	*	*xywh-#313:4514,1240,3523,648	*	*	*	*	*
!LO:LB:g=original	!	!LO:LB:g=original	!	!	!	!	!
=9-	=9-	=9-	=9-	=9-	=9-	=9-	=9-
2r	.	4e\	cœ-	0g	-ni	0r	.
.	.	4f\	.	.	.	.	.
2G\	in	4g\	.	.	.	.	.
.	.	4f\	.	.	.	.	.
4C/	cœ-	4e\	.	.	.	.	.
4D/	.	4d\	.	.	.	.	.
4E/	.	2.cny/	.	.	.	.	.
4C/	.	.	.	.	.	.	.
=10-	=10-	=10-	=10-	=10-	=10-	=10-	=10-
1D	.	.	.	1r	.	2r	.
.	.	8B/	.	.	.	.	.
.	.	8A/	.	.	.	.	.
.	.	2B/	.	.	.	2dd\	in
1C	-na	2c/	-na	2r	.	4ee\	cœ-
.	.	.	.	.	.	4ff\	.
.	.	2e\	re-	2g\	in	4gg\	.
.	.	.	.	.	.	4ff\	.
=11-	=11-	=11-	=11-	=11-	=11-	=11-	=11-
1r	.	2A/	-cu-	4c/	cœ-	4ee\	.
.	.	.	.	4d/	.	4dd\	.
.	.	2c/	-bu-	4e/	.	2.ccny\	.
.	.	.	.	4c/	.	.	.
2r	.	1G	-it	1d	.	.	.
.	.	.	.	.	.	8b/	.
.	.	.	.	.	.	8a/	.
2G\	in	.	.	.	.	2b/	.
=12-	=12-	=12-	=12-	=12-	=12-	=12-	=12-
4A\	cœ-	2r	.	0c	-na	2ccny\	-na
4B-\	.	.	.	.	.	.	.
4c\	.	2c/	in	.	.	2ee\	re-
4B-\	.	.	.	.	.	.	.
4A\	.	4F/	cœ-	.	.	2a/	-cu-
4G\	.	4G/	.	.	.	.	.
2.Fny/	.	4A/	.	.	.	2ccny\	-bu-
.	.	4F/	.	.	.	.	.
=13-	=13-	=13-	=13-	=13-	=13-	=13-	=13-
!	!	!	!	!	!	!LO:SIC:v:t=custos cc	!
.	.	1c	.	2r	.	1g	-it
8E/	.	.	.	.	.	.	.
8D/	.	.	.	.	.	.	.
2E/	.	.	.	2g\	in	.	.
*	*	*	*	*	*	*xywh-#617:4571,1728,3442,664	*
!	!	!	!	!	!	!LO:LB:g=original	!
2F/	-na	1c	-na	4a\	cœ-	2r	.
.	.	.	.	4b-\	.	.	.
2A\	re-	.	.	4cc\	.	2ccny\	in
!	!	!	!	!LO:SIC:v:t=custos a	!	!	!
.	.	.	.	4b-\	.	.	.
*	*	*	*	*xywh-#465:4523,1845,3397,614	*	*	*
!	!	!	!	!LO:LB:g=original	!	!	!
=14-	=14-	=14-	=14-	=14-	=14-	=14-	=14-
2D/	-cu-	0r	.	4a\	.	4f/	cœ-
.	.	.	.	4g\	.	4g/	.
2F/	-bu-	.	.	2.fny\	.	4a/	.
.	.	.	.	.	.	4f/	.
!LO:SIC:v:t=custos D	!	!	!	!	!	!	!
1C	-it	.	.	.	.	1g	.
.	.	.	.	8e/	.	.	.
.	.	.	.	8d/	.	.	.
.	.	.	.	2e/	.	.	.
*xywh-#161:4583,1815,3429,631	*	*	*	*	*	*	*
!LO:LB:g=original	!	!	!	!	!	!	!
=15-	=15-	=15-	=15-	=15-	=15-	=15-	=15-
2r	.	1r	.	2f\	-na	1a	-na
1D	Iſ-	.	.	2a\	re-	.	.
.	.	2r	.	2d/	-cu-	2r	.
2D/	-te	1a\	Iſ-	2f\	-buit	2dd\	re-
=16-	=16-	=16-	=16-	=16-	=16-	=16-	=16-
1F	eſt	.	.	2.c/	.	2a/	-cu-
!	!	!LO:SIC:v:t=custos g	!	!	!	!	!
.	.	2a\	-te	.	.	2ccny\	-bu-
.	.	.	.	4d/	.	.	.
*	*	*	*	*	*	*lig	*
*	*	*xywh-#313:4522,1764,3448,664	*	*	*	*	*
!	!	!LO:LB:g=original	!	!	!	!	!
1G	Io-	2g^\	eſt	4e/	.	1b	-it
.	.	.	.	4d/	.	.	.
.	.	2f\	Io-	2.d/	.	.	.
=17-	=17-	=17-	=17-	=17-	=17-	=17-	=17-
1A	-an-	1e	-an-	.	.	1a	.
.	.	.	.	4c/	.	.	.
.	.	.	.	4c/	.	.	.
.	.	.	.	8d/	.	.	.
.	.	.	.	8e/	.	.	.
*	*	*	*	*	*	*Xlig	*
0D	-nes	2.d\	-nes	1f	.	2r	.
.	.	.	.	.	.	1a/	Iſ-
.	.	4e\	.	.	.	.	.
=18-	=18-	=18-	=18-	=18-	=18-	=18-	=18-
.	.	1f	.	2r	.	.	.
.	.	.	.	1a	Iſ-	2a/	-te
1r	.	0r	.	.	.	1ccny	eſt
.	.	.	.	2a\	-te	.	.
=19-	=19-	=19-	=19-	=19-	=19-	=19-	=19-
!LO:N:vis=0	!	!	!	!	!	!	!
0.r	.	.	.	2g\	eſt	1dd	Io-
.	.	.	.	2f\	Io-	.	.
!LO:TX:t=P:problem:przesunięcie spowodowane przez tenore	!	!	!	!LO:TX:t=P:problem:przesunięcie spowodowane przez tenore	!	!LO:TX:t=P:problem:przesunięcie spowodowane przez tenore	!
.	.	1r	.	1ryy	.	1ryy	.
=20-	=20-	=20-	=20-	=20-	=20-	=20-	=20-
*	*ij	*	*ij	*	*	*	*
.	.	1.A	I-	4e/	-an-	1ee	-an-
!	!	!	!	!LO:SIC:v:t=custos c	!	!	!
.	.	.	.	4d/	.	.	.
*	*	*	*	*xywh-#465:4537,2368,3418,635	*	*	*
!	!	!	!	!LO:LB:g=original	!	!	!
.	.	.	.	4c/	.	.	.
.	.	.	.	4B/	.	.	.
1.A	I-	.	.	4c/	.	2a/	-nes
.	.	.	.	4d/	.	.	.
!	!	!	!	!	!	!LO:SIC:v:t=custos cc	!
*	*	*	*	*	*	*	*ij
.	.	2A/	-ſte	4e/	.	1ccny\	Is-
.	.	.	.	4c/	.	.	.
*	*	*	*	*	*	*xywh-#617:4578,2287,3379,650	*
!	!	!	!	!	!	!LO:LB:g=original	!
=21-	=21-	=21-	=21-	=21-	=21-	=21-	=21-
.	.	1c	est	2f\	.	.	.
2A\	-ste	.	.	2.e/	.	2ccny\	-te
2G\	est	1d	io-	.	.	2b\	Io-
.	.	.	.	4d/	.	.	.
2F/	Io-	.	.	2.d/	.	2a/	-an-
=22-	=22-	=22-	=22-	=22-	=22-	=22-	=22-
*	*	*	*	*	*	*lig	*
1E	-an-	1e	-an-	.	.	1g	-nes
.	.	.	.	4c/	.	.	.
.	.	.	.	4c/	.	.	.
.	.	.	.	8d/	.	.	.
.	.	.	.	8e/	.	.	.
1D	-nes	2A/	-nes	4f\	.	1a	.
*	*Xij	*	*Xij	*	*	*	*
.	.	.	.	4g\	.	.	.
.	.	2A/	Qui	2.a\	.	.	.
*	*	*	*	*	*	*Xlig	*Xij
=23-	=23-	=23-	=23-	=23-	=23-	=23-	=23-
1r	.	2d\	ſu-	.	.	1b	.
.	.	.	.	8g\	.	.	.
.	.	.	.	8f#X\	.	.	.
.	.	2e\	-pra	2g#X\	.	.	.
0r	.	2.f\	pec-	0.a	-nes	2r	.
.	.	.	.	.	.	2a/	Qui
.	.	4e\	-tus	.	.	.	.
=24-	=24-	=24-	=24-	=24-	=24-	=24-	=24-
.	.	2d\	Do-	.	.	2dd\	ſu-
.	.	2c#X/	-mi-	.	.	2ee\	-pra
2r	.	1d	-ni	.	.	2.ff\	pec-
2D/	Qui	.	.	.	.	.	.
.	.	.	.	.	.	4ee\	-tus
=25-	=25-	=25-	=25-	=25-	=25-	=25-	=25-
2G\	ſu-	1r	.	1r	.	2dd\	Do-
2A\	-pra	.	.	.	.	2cc#X\	-mi-
2.B-X\	pec-	0r	.	2r	.	00dd	-ni
.	.	.	.	2d/	Qui	.	.
4A\	-tus	.	.	.	.	.	.
=26-	=26-	=26-	=26-	=26-	=26-	=26-	=26-
2G\	Do-	.	.	2gny\	ſu-	.	.
!LO:SIC:v:t=custos G	!	!	!	!LO:SIC:v:t=custos b	!	!	!
2F#X/	-mi-	.	.	2a\	-pra	.	.
*xywh-#161:4594,2370,3411,625	*	*	*	*	*	*	*
*	*	*	*	*xywh-#465:4516,2912,3333,649	*	*	*
!LO:LB:g=original	!	!LO:SIC:v:t=custos d	!	!LO:LB:g=original	!	!	!
1G	-ni	1r	.	2.b-X\	pec-	.	.
.	.	.	.	4a\	-tus	.	.
*	*	*xywh-#313:4531,2320,3432,673	*	*	*	*	*
!	!	!LO:LB:g=original	!	!	!	!	!
=27-	=27-	=27-	=27-	=27-	=27-	=27-	=27-
1r	.	2r	.	2g\	Do-	.	.
.	.	2d\	in	2f#X\	-mi-	.	.
2r	.	4e\	cœ-	0g	-ni	0r	.
.	.	4f\	.	.	.	.	.
2G\	in	4g\	.	.	.	.	.
.	.	4f\	.	.	.	.	.
=28-	=28-	=28-	=28-	=28-	=28-	=28-	=28-
4C/	cœ-	4e\	.	.	.	.	.
4D/	.	4d\	.	.	.	.	.
4E/	.	2.cny/	.	.	.	.	.
4C/	.	.	.	.	.	.	.
1D	.	.	.	1r	.	2r	.
.	.	8B/	.	.	.	.	.
.	.	8A/	.	.	.	.	.
.	.	2B/	.	.	.	2dd\	in
=29-	=29-	=29-	=29-	=29-	=29-	=29-	=29-
1C	-na	2c/	-na	2r	.	4ee\	ce-
.	.	.	.	.	.	4ff\	.
.	.	2e\	re-	2g\	in	4gg\	.
!	!	!	!	!	!	!LO:SIC:v:t=custos ee	!
.	.	.	.	.	.	4ff\	.
*	*	*	*	*	*	*xywh-#617:4578,2833,3393,629	*
!	!	!	!	!	!	!LO:LB:g=original	!
1r	.	2A/	-cu-	4c/	cœ-	4ee\	.
.	.	.	.	4d/	.	4dd\	.
.	.	2c/	-bu-	4e/	.	2.ccny\	.
.	.	.	.	4c/	.	.	.
=30-	=30-	=30-	=30-	=30-	=30-	=30-	=30-
2r	.	1G	-it	1d	.	.	.
.	.	.	.	.	.	8b/	.
.	.	.	.	.	.	8a/	.
2G\	in	.	.	.	.	2b/	.
4A\	cœ-	2r	.	0.c	-na	0ccny	-na
4Bny\	.	.	.	.	.	.	.
*	*	*	*ij	*	*	*	*
4c\	.	2c/	in	.	.	.	.
4Bny\	.	.	.	.	.	.	.
=31-	=31-	=31-	=31-	=31-	=31-	=31-	=31-
4A\	.	4F/	re-	.	.	.	.
4G\	.	4G/	-cu-	.	.	.	.
2.Fny/	.	4A/	-bu-	.	.	.	.
.	.	4F/	.	.	.	.	.
!	!	!LO:SIC:v:t=custos c	!	!	!	!	!
.	.	1G	.	.	.	2r	.
8E/	.	.	.	.	.	.	.
8D/	.	.	.	.	.	.	.
2E/	.	.	.	.	.	2ee\	re-
*	*	*xywh-#313:4531,2866,3473,648	*	*	*	*	*
!	!	!LO:LB:g=original	!	!	!	!	!
=32-	=32-	=32-	=32-	=32-	=32-	=32-	=32-
2F/	-na	1c	-it	2r	.	2a/	-cu-
!LO:SIC:v:t=custos D	!	!	!	!	!	!	!
2A\	re-	.	.	2e/	re-	2ccny\	-bu-
*xywh-#161:4618,2925,3405,613	*	*	*	*	*	*	*
!LO:LB:g=original	!	!	!	!	!	!	!
2D/	-cu-	2r	.	2fny\	-cu-	4b/	-it
.	.	.	.	.	.	4a/	.
*	*	*	*Xij	*	*	*	*
2F/	-bu-	2A/	re-	2d/	-buit	1a/	.
=33-	=33-	=33-	=33-	=33-	=33-	=33-	=33-
0E	-it	2c/	-cu-	0e	.	.	.
.	.	4B/	.	.	.	4g#X/	.
.	.	4A/	.	.	.	4f#X/	.
.	.	2B/	.	.	.	1g#X	.
.	.	2B/	-bu-	.	.	.	.
=34-	=34-	=34-	=34-	=34-	=34-	=34-	=34-
0A	be-	1A	-it	0e	be-	1r	.
.	.	1c#X	be-	.	.	1a	be-
=35-	=35-	=35-	=35-	=35-	=35-	=35-	=35-
!	!	!	!	!	!	!LO:SIC:v:t=custos a	!
1A	-at-	1c#yX	-a-	1e	-a-	1a	-a-
!	!	!	!	!LO:SIC:v:t=custos g	!	!LO:LB:g=original	!
*	*	*	*	*	*	*xywh-#617:4571,3393,3435,657	*
1D	-tus	1d	-tus	1f#X	-tus	1a	-tus
*	*	*	*	*xywh-#465:4524,3499,3319,593	*	*	*
!	!	!	!	!LO:LB:g=original	!	!	!
=36-	=36-	=36-	=36-	=36-	=36-	=36-	=36-
1G	A-	1d	A-	1g	A-	1b	A-
2.F/	-po-	1.f	-poſ-	1.a	-poſ-	1.ccny	-poſ-
4G\	.	.	.	.	.	.	.
=37-	=37-	=37-	=37-	=37-	=37-	=37-	=37-
2.A\	.	.	.	.	.	.	.
.	.	2e\	-to-	2a\	-to-	2ccny\	-to-
4B\	.	.	.	.	.	.	.
2c\	.	2e\	-lus	0g	-lus	2ccny\	-lus
2C/	-ſto-	1g\	cui	.	.	1ee/	cu-
=38-	=38-	=38-	=38-	=38-	=38-	=38-	=38-
1G	-lus	.	.	.	.	.	.
.	.	2d\	.	.	.	2b/	-i
!	!	!	!	!	!	!	!
2r	.	2.e\	re-	0r	.	2.ccny\	re-
1A\	cui	.	.	.	.	.	.
.	.	4d\	-ue-	.	.	4b/	-ue-
=39-	=39-	=39-	=39-	=39-	=39-	=39-	=39-
.	.	2cny/	-la-	.	.	2a/	-la-
!	!	!LO:SIC:v:t=custos a	!	!	!	!	!
2E/	re-	2B/	-ta	.	.	2g#X/	-ta
*	*	*xywh-#313:4514,3426,3465,639	*	*	*	*	*
!	!	!LO:LB:g=original	!	!	!	!	!
2.F/	-ue-	0A	ſunt	2r	.	00.a\	ſunt
.	.	.	.	1a\	cui	.	.
4E/	-la-	.	.	.	.	.	.
=40-	=40-	=40-	=40-	=40-	=40-	=40-	=40-
2D/	-ta	.	.	.	.	.	.
2C#X/	.	.	.	2e/	.	.	.
!LO:SIC:v:t=custos d	!	!	!	!	!	!	!
1D	ſunt	2r	.	2.fny\	re-	.	.
*xywh-#161:4600,3456,3393,631	*	*	*	*	*	*	*
.	.	1a\	cui	.	.	.	.
.	.	.	.	4e/	-ue-	.	.
=41-	=41-	=41-	=41-	=41-	=41-	=41-	=41-
1r	.	.	.	2d/	-la-	.	.
.	.	2e\	re-	2c#X/	-ta	.	.
2r	.	2.f\	-ue-	2d/	ſunt	.	.
*	*ij	*	*	*	*ij	*	*
1d\	re-	.	.	1f\	cui	.	.
.	.	4e\	-la-	.	.	.	.
=42-	=42-	=42-	=42-	=42-	=42-	=42-	=42-
.	.	2d\	-ta	.	.	.	.
2A\	-ve-	2c#X/	.	2e/	.	.	.
2.B-X\	-la-	0.d	ſunt	2g\	re-	2r	.
.	.	.	.	2f\	-ve-	1dd\	cu-
4A\	.	.	.	.	.	.	.
=43-	=43-	=43-	=43-	=43-	=43-	=43-	=43-
2G\	.	.	.	2g\	-la-	.	.
2F#X/	-ta	.	.	2a\	-ta	2a/	-i
2G\	sunt	.	.	2.g\	sunt	2.b-X/	re-
*	*	*	*	*	*Xij	*	*
1G\	re-	.	.	.	.	.	.
.	.	.	.	8f\	.	4a/	-ue-
!	!	!	!	!LO:SIC:v:t=custos d	!	!	!
.	.	.	.	8e\	.	.	.
*	*	*	*	*xywh-#465:4545,4006,3319,649	*	*	*
!	!	!	!	!LO:LB:g=original	!	!	!
=44-	=44-	=44-	=44-	=44-	=44-	=44-	=44-
.	.	2r	.	1d	.	2gny/	-la-
2D/	-ve-	2d\	ſe-	.	.	2f#X/	-ta
!	!	!	!	!	!	!LO:SIC:v:t=custos gg	!
2.E/	-la-	1B	-cre-	2r	.	0gny	ſunt
.	.	.	.	1g\	cui	.	.
4D/	.	.	.	.	.	.	.
*	*	*	*	*	*	*xywh-#617:4592,3932,3442,629	*
!	!	!	!	!	!	!LO:LB:g=original	!
=45-	=45-	=45-	=45-	=45-	=45-	=45-	=45-
2Cny/	.	2cny/	-ta	.	.	.	.
2BB/	-ta	2d\	cœ-	2d/	re-	.	.
1C	sunt	2.c/	-le-	2.e/	-ve-	2r	.
*	*Xij	*	*	*	*	*	*ij
.	.	.	.	.	.	1gg\	cu-
.	.	4d\	.	4d/	-la-	.	.
=46-	=46-	=46-	=46-	=46-	=46-	=46-	=46-
1r	.	4e\	.	2cny/	-ta	.	.
.	.	4f\	.	.	.	.	.
.	.	1g	.	2B/	.	2dd\	-i
2r	.	.	.	1c	ſunt	2.ee\	re-
1c\	cui	2g\	-ſti-	.	.	.	.
.	.	.	.	.	.	4dd\	-ve-
=47-	=47-	=47-	=47-	=47-	=47-	=47-	=47-
.	.	1g	-a	2r	.	2cc\	-la
2G\	re-	.	.	2g\	ſe-	2bny\	ta
!	!	!LO:SIC:v:t=custos c	!	!	!	!	!
2.A\	-ue-	1r	.	1e	-cre-	1cc	sunt
4G\	-la-	.	.	.	.	.	.
*	*	*	*ij	*	*	*	*Xij
*	*	*xywh-#313:4514,3983,3423,639	*	*	*	*	*
!	!	!LO:LB:g=original	!	!	!	!	!
=48-	=48-	=48-	=48-	=48-	=48-	=48-	=48-
2Fny/	-ta	1c	se-	2f\	-ta	2r	.
!LO:SIC:v:t=custos F	!	!	!	!	!	!	!
2E/	.	.	.	2g\	cœ-	2ee\	ſe-
*xywh-#161:4623,3988,3411,672	*	*	*	*	*	*	*
!LO:LB:g=original	!	!	!	!	!	!	!
1Fny	ſunt	1A	-cre-	2.a\	-leſ-	1cc	-cre-
.	.	.	.	4a\	-ti-	.	.
=49-	=49-	=49-	=49-	=49-	=49-	=49-	=49-
1r	.	2.B/	-ta	2d/	-a	2dd\	-ta
*	*	*	*	*	*ij	*	*
.	.	.	.	2.g\	cui	2bny/	cœ-
.	.	4c/	.	.	.	.	.
1r	.	2.d\	cœ-	.	.	2.a/	-leſ-
.	.	.	.	8f#X\	re-	.	.
.	.	.	.	8e\	-ve-	.	.
!	!	!	!	!LO:SIC:v:t=custos g	!	!	!
.	.	.	.	2f#X\	-la-	.	.
.	.	4d\	-les-	.	.	4a/	-ti-
=50-	=50-	=50-	=50-	=50-	=50-	=50-	=50-
*	*	*	*	*xywh-#465:4523,4557,3432,734	*	*	*
2r	.	2.G/	.	2g\	-ta	1bny	-a
2G\	ſe-	.	.	2d/	sunt	.	.
.	.	4A/	-ti-	.	.	.	.
1E	-cre-	1B	-a	1g	se-	2bny/	cœ-
.	.	.	.	.	.	2.ee\	-le-
*	*	*	*Xij	*	*	*	*
=51-	=51-	=51-	=51-	=51-	=51-	=51-	=51-
2.F/	-ta	2r	.	1fny	-cre-	.	.
.	.	.	.	.	.	4dd\	.
.	.	1a	cui	.	.	1dd	.
4G\	cœ-	.	.	.	.	.	.
2.A\	-leſ-	.	.	1e	-ta	.	.
!	!	!	!	!	!	!LO:SIC:v:t=custos dd	!
.	.	2e\	re-	.	.	2cc#X\	-ſti-
4A\	-ti-	.	.	.	.	.	.
*	*	*	*	*	*	*xywh-#617:4613,4470,3344,629	*
!	!	!	!	!	!	!LO:LB:g=original	!
=52-	=52-	=52-	=52-	=52-	=52-	=52-	=52-
2D/	-a	2.f\	-ue-	4d/	cœ-	1dd	-a
.	.	.	.	4e/	-les-	.	.
1d	cu-	.	.	4f\	.	.	.
.	.	4e\	-la-	4g\	.	.	.
.	.	2d\	-ta	2.a\	.	1r	.
2A\	-i	2c#X/	.	.	.	.	.
.	.	.	.	4g\	-ti-	.	.
=53-	=53-	=53-	=53-	=53-	=53-	=53-	=53-
2.B-X\	re-	2d\	ſunt	1f	-a	2r	.
*	*	*	*ij	*	*	*	*
.	.	1d	cui	.	.	1dd	cu-
4A\	-ue-	.	.	.	.	.	.
2G\	-la-	.	.	1r	.	.	.
2F#X/	-ta	2d\	re-	.	.	2a/	-i
*	*	*	*	*	*Xij	*	*
=54-	=54-	=54-	=54-	=54-	=54-	=54-	=54-
1G	ſunt	2.d\	-ve-	2r	.	2.b-X/	re-
.	.	.	.	2d/	ſe-	.	.
!	!	!LO:SIC:v:t=custos B	!	!	!	!	!
.	.	4cny/	-la-	.	.	4a/	-ue
*	*	*xywh-#313:4539,4490,3324,714	*	*	*	*	*
!	!	!LO:LB:g=original	!	!	!	!	!
2r	.	2B/	-ta	1.d	-cre-	2g/	la-
2D/	ſe-	2A/	.	.	.	2f#X/	-ta
=55-	=55-	=55-	=55-	=55-	=55-	=55-	=55-
2BB/	-cre-	1G	sunt	.	.	2g/	ſunt
1C/	-ta	.	.	1g	-ta	2e/	ſe-
.	.	2r	.	.	.	1a	-cre-
*	*	*	*Xij	*	*	*	*
2D/	cœ-	2d\	ſe-	2f\	cœ-	.	.
=56-	=56-	=56-	=56-	=56-	=56-	=56-	=56-
0E	-leſ-	2B/	-cre-	0e	-leſ-	2g/	-ta
.	.	1G	-ta	.	.	1bny	cœ-
.	.	2A/	cœ-	.	.	1a/	-leſ-
=57-	=57-	=57-	=57-	=57-	=57-	=57-	=57-
1E	-ti-	2.B/	-leſ-	1e	-ti-	.	.
.	.	.	.	.	.	2g#X/	-ti-
.	.	4B/	-ti-	.	.	.	.
00AA	-a.	00A	-a.	00e	-a.	00a	-a.
==	==	==	==	==	==	==	==
*-	*-	*-	*-	*-	*-	*-	*-
!!!system-decoration: [(s1,s2,s3,s4)]
!!!ENC: Andrzej Gręziak
!!!END: 2022-06-30
!!!ENC: Natalia Wrzos
!!!END: 2022-07-09
!!!YEC: Copyright 2022 Narodowy Instytut Fryderyka Chopina (https://polishscores.org)
!!!YEM: License CC-BY-4.0 (https://creativecommons.org/licenses/by/4.0)
!!!IIIF: https://repozytorium.nifc.pl/islandora/object/pl-gd%3A57883/datastream/IIIF/view
!!!ENC-iiif: Lidia Bialucha
!!!END-iiif: 2022-09-03
